src/pos-icons/wardrobe.svg

<svg height="24" viewBox="0 0 24 24" width="24" xmlns="http://www.w3.org/2000/svg"><path d="m4 4v15c0 1.1.9 2 2 2v1h2v-1h3.5v-19h-5.5c-1.1 0-2 .9-2 2m4 6h2v3h-2zm10-8h-5.5v19h3.5v1h2v-1c1.1 0 2-.9 2-2v-15c0-1.1-.9-2-2-2m-2 11h-2v-3h2z"/></svg>

<?xml version="1.0" encoding="UTF-8"?><!DOCTYPE svg PUBLIC "-//W3C//DTD SVG 1.1//EN" "http://www.w3.org/Graphics/SVG/1.1/DTD/svg11.dtd"><svg xmlns="http://www.w3.org/2000/svg" xmlns:xlink="http://www.w3.org/1999/xlink" version="1.1" id="mdi-wardrobe" width="24" height="24" viewBox="0 0 24 24"><path d="M4 4V19C4 20.1 4.9 21 6 21V22H8V21H11.5V2H6C4.9 2 4 2.9 4 4M8 10H10V13H8V10M18 2H12.5V21H16V22H18V21C19.1 21 20 20.1 20 19V4C20 2.9 19.1 2 18 2M16 13H14V10H16V13Z" /></svg>
